;START_OF_HEADER
;HEADER_VERSION:0.1
;FLAVOR:Griffin
;GENERATOR.NAME:Cura_SteamEngine
;GENERATOR.VERSION:4.7.1
;GENERATOR.BUILD_DATE:2020-09-02
;TARGET_MACHINE.NAME:Ultimaker 3 Extended
;EXTRUDER_TRAIN.0.INITIAL_TEMPERATURE:210
;EXTRUDER_TRAIN.0.MATERIAL.VOLUME_USED:4305
;EXTRUDER_TRAIN.0.MATERIAL.GUID:506c9f0d-e3aa-4bd4-b2d2-23e2425b1aa9
;EXTRUDER_TRAIN.0.NOZZLE.DIAMETER:0.4
;EXTRUDER_TRAIN.0.NOZZLE.NAME:AA 0.4
;BUILD_PLATE.TYPE:glass
;BUILD_PLATE.INITIAL_TEMPERATURE:60
;PRINT.TIME:2385
;PRINT.GROUPS:1
;PRINT.SIZE.MIN.X:9
;PRINT.SIZE.MIN.Y:6
;PRINT.SIZE.MIN.Z:0.27
;PRINT.SIZE.MAX.X:170.133
;PRINT.SIZE.MAX.Y:123.782
;PRINT.SIZE.MAX.Z:19.87
;END_OF_HEADER
;Generated with Cura_SteamEngine 4.7.1
T0
M82 ;absolute extrusion mode

G92 E0
M109 S210
G0 F15000 X9 Y6 Z2
G280
G1 F1500 E-6.5
;LAYER_COUNT:99
;LAYER:0
M107
M204 S625
M205 X6 Y6
G1 F600 Z2.27
G0 F4285.7 X66.757 Y106.302 Z2.27
M204 S500
M205 X5 Y5
;TYPE:SKIRT
G1 F600 Z0.27
G1 F1500 E0
G1 F1200 X67.435 Y105.996 E0.01322
G1 X68.44 Y105.693 E0.03188
G1 X70.748 Y105.183 E0.0739
G1 X71.482 Y105.062 E0.08712
G1 X72.225 Y105.02 E0.10035
G1 X72.969 Y105.058 E0.11359
G1 X73.704 Y105.176 E0.12683
G1 X74.422 Y105.371 E0.14005
G1 X74.948 Y105.577 E0.15009
G1 X75.416 Y105.154 E0.16131
G1 X76.018 Y104.717 E0.17453
G1 X76.664 Y104.347 E0.18776
G1 X77.346 Y104.049 E0.20099
G1 X78.28 Y103.771 E0.21832
G1 X81.02 Y103.164 E0.2682
G1 X81.002 Y102.853 E0.27374
G1 X81.04 Y102.11 E0.28697
G1 X81.157 Y101.375 E0.3002
G1 X81.353 Y100.657 E0.31343
G1 X81.624 Y99.964 E0.32665
G1 X82.076 Y99.128 E0.34355
G1 X82.169 Y98.981 E0.34664
G1 X82.6 Y98.374 E0.35987
G1 X83.093 Y97.817 E0.37309
G1 X83.644 Y97.316 E0.38633
G1 X84.245 Y96.878 E0.39955
G1 X84.89 Y96.506 E0.41279
G1 X85.571 Y96.205 E0.42602
G1 X86.526 Y95.92 E0.44374
G1 X87.749 Y95.649 E0.46601
G1 X88.483 Y95.527 E0.47923
G1 X89.226 Y95.485 E0.49246
G1 X89.97 Y95.523 E0.5057
G1 X90.705 Y95.64 E0.51893
G1 X91.423 Y95.835 E0.53216
G1 X92.116 Y96.106 E0.54539
G1 X92.953 Y96.559 E0.5623
G1 X93.1 Y96.652 E0.5654
G1 X93.707 Y97.083 E0.57863
G1 X94.264 Y97.576 E0.59185
G1 X94.765 Y98.127 E0.60509
G1 X95.203 Y98.728 E0.61831
G1 X95.575 Y99.373 E0.63155
G1 X95.802 Y99.886 E0.64152
G1 X97.684 Y99.469 E0.67578
G1 X97.807 Y99.443 E0.67802
G1 X100.634 Y98.87 E0.72929
G1 X100.878 Y98.825 E0.7337
G1 X103.714 Y98.355 E0.7848
G1 X103.962 Y98.319 E0.78926
G1 X106.812 Y97.952 E0.84034
G1 X107.061 Y97.924 E0.84479
G1 X109.452 Y97.704 E0.88747
G1 X109.499 Y97.64 E0.88889
G1 X110.165 Y96.926 E0.90624
G1 X110.552 Y96.566 E0.91564
G1 X110.997 Y96.186 E0.92604
G1 X111.605 Y95.757 E0.93927
G1 X112.051 Y95.499 E0.94843
G1 X112.518 Y95.252 E0.95782
G1 X113.184 Y94.944 E0.97086
G1 X113.209 Y94.934 E0.97134
G1 X114.253 Y94.609 E0.99078
G1 X114.77 Y94.492 E1.0002
G1 X115.788 Y94.34 E1.01849
G1 X115.815 Y94.338 E1.01898
G1 X116.617 Y94.325 E1.03323
G1 X117.142 Y94.347 E1.04257
G1 X118.169 Y94.467 E1.06095
G1 X118.2 Y94.473 E1.06152
G1 X118.975 Y94.67 E1.07573
G1 X119.474 Y94.828 E1.08503
G1 X120.481 Y95.237 E1.10436
G1 X120.507 Y95.25 E1.10487
G1 X121.157 Y95.62 E1.11817
G1 X121.6 Y95.905 E1.12753
G1 X122.315 Y96.432 E1.14332
G1 X122.334 Y96.448 E1.14376
G1 X123.033 Y97.126 E1.16107
G1 X123.384 Y97.518 E1.17043
G1 X123.528 Y97.701 E1.17456
G1 X125.921 Y97.921 E1.21728
G1 X126.174 Y97.949 E1.22181
G1 X129.044 Y98.32 E1.27325
G1 X129.289 Y98.356 E1.27765
G1 X132.125 Y98.826 E1.32875
G1 X132.369 Y98.871 E1.33316
G1 X135.318 Y99.47 E1.38665
G1 X137.199 Y99.887 E1.4209
G1 X137.314 Y99.6 E1.4264
G1 X137.662 Y98.942 E1.43963
G1 X138.079 Y98.325 E1.45287
G1 X138.559 Y97.757 E1.46609
G1 X139.098 Y97.243 E1.47932
G1 X139.881 Y96.663 E1.49665
G1 X140.027 Y96.57 E1.49972
G1 X140.675 Y96.204 E1.51295
G1 X141.359 Y95.911 E1.52618
G1 X142.07 Y95.692 E1.5394
G1 X142.801 Y95.55 E1.55264
G1 X143.543 Y95.488 E1.56588
G1 X144.287 Y95.506 E1.57911
G1 X145.24 Y95.647 E1.59623
G1 X146.466 Y95.917 E1.61855
G1 X147.184 Y96.116 E1.63179
G1 X147.875 Y96.391 E1.64501
G1 X148.534 Y96.738 E1.65825
G1 X149.151 Y97.154 E1.67148
G1 X149.72 Y97.634 E1.68471
G1 X150.235 Y98.172 E1.69795
G1 X150.85 Y99.009 E1.71641
G1 X150.942 Y99.156 E1.7195
G1 X151.303 Y99.807 E1.73273
G1 X151.591 Y100.493 E1.74595
G1 X151.805 Y101.206 E1.75919
G1 X151.94 Y101.938 E1.77242
G1 X151.996 Y102.68 E1.78565
G1 X151.981 Y103.164 E1.79425
G1 X154.721 Y103.772 E1.84414
G1 X155.438 Y103.972 E1.85738
G1 X156.13 Y104.248 E1.87062
G1 X156.788 Y104.596 E1.88385
G1 X157.404 Y105.013 E1.89707
G1 X157.973 Y105.494 E1.91032
G1 X158.051 Y105.575 E1.91232
G1 X158.644 Y105.349 E1.9236
G1 X159.364 Y105.159 E1.93683
G1 X160.1 Y105.048 E1.95007
G1 X160.843 Y105.016 E1.96329
G1 X161.586 Y105.065 E1.97652
G1 X162.268 Y105.181 E1.98882
G1 X164.564 Y105.691 E2.03063
G1 X165.281 Y105.891 E2.04386
G1 X165.972 Y106.167 E2.05709
G1 X166.63 Y106.515 E2.07032
G1 X167.246 Y106.932 E2.08354
G1 X167.814 Y107.413 E2.09677
G1 X168.328 Y107.952 E2.11001
G1 X168.916 Y108.749 E2.12762
G1 X169.061 Y108.978 E2.13243
G1 X169.425 Y109.627 E2.14566
G1 X169.717 Y110.312 E2.1589
G1 X169.934 Y111.024 E2.17213
G1 X170.073 Y111.755 E2.18536
G1 X170.133 Y112.497 E2.19859
G1 X170.114 Y113.241 E2.21182
G1 X169.973 Y114.18 E2.2287
G1 X169.555 Y116.072 E2.26314
G1 X169.355 Y116.789 E2.27637
G1 X169.08 Y117.481 E2.28961
G1 X168.733 Y118.139 E2.30283
G1 X168.316 Y118.756 E2.31607
G1 X167.688 Y119.477 E2.33307
G1 X167.504 Y119.661 E2.33769
G1 X166.95 Y120.159 E2.35094
G1 X166.346 Y120.594 E2.36417
G1 X165.699 Y120.961 E2.37739
G1 X165.017 Y121.258 E2.39061
G1 X164.306 Y121.479 E2.40385
G1 X163.576 Y121.623 E2.41707
G1 X162.834 Y121.687 E2.43031
G1 X162.09 Y121.672 E2.44354
G1 X161.109 Y121.528 E2.46117
G1 X158.764 Y121.01 E2.50385
G1 X158.047 Y120.811 E2.51708
G1 X157.356 Y120.535 E2.53031
G1 X156.697 Y120.188 E2.54355
G1 X156.08 Y119.771 E2.55679
G1 X155.512 Y119.291 E2.57
G1 X155.214 Y118.98 E2.57766
G1 X155.181 Y118.994 E2.5783
G1 X154.47 Y119.213 E2.59152
G1 X153.739 Y119.355 E2.60476
G1 X152.997 Y119.417 E2.618
G1 X152.253 Y119.399 E2.63123
G1 X151.291 Y119.256 E2.64851
G1 X131.912 Y114.961 E3.00135
G1 X129.326 Y114.437 E3.04826
G1 X126.802 Y114.02 E3.09373
G1 X124.236 Y113.692 E3.13972
G1 X121.652 Y113.458 E3.18584
G1 X119.075 Y113.318 E3.23171
G1 X116.485 Y113.27 E3.27776
G1 X113.911 Y113.319 E3.32352
G1 X111.29 Y113.463 E3.37019
G1 X108.76 Y113.693 E3.41534
G1 X106.184 Y114.023 E3.46151
G1 X103.637 Y114.445 E3.5074
G1 X101.06 Y114.967 E3.55414
G1 X81.713 Y119.256 E3.9064
G1 X80.978 Y119.378 E3.91965
G1 X80.235 Y119.42 E3.93287
G1 X79.492 Y119.382 E3.9461
G1 X78.757 Y119.265 E3.95933
G1 X78.458 Y119.184 E3.96484
G1 X78.071 Y119.653 E3.97564
G1 X77.539 Y120.174 E3.98888
G1 X76.954 Y120.634 E4.00211
G1 X76.322 Y121.03 E4.01537
G1 X75.974 Y121.465 E4.02527
G1 X75.45 Y121.993 E4.03849
G1 X74.871 Y122.462 E4.05174
G1 X74.246 Y122.866 E4.06497
G1 X73.582 Y123.201 E4.07819
G1 X72.885 Y123.463 E4.09142
G1 X72.164 Y123.648 E4.10466
G1 X71.427 Y123.755 E4.11789
G1 X70.683 Y123.782 E4.13113
G1 X69.941 Y123.729 E4.14435
G1 X69.209 Y123.597 E4.15757
G1 X68.494 Y123.388 E4.17082
G1 X67.807 Y123.102 E4.18404
G1 X67.154 Y122.745 E4.19727
G1 X66.812 Y122.519 E4.20456
G1 X65.572 Y121.646 E4.23152
G1 X64.907 Y121.192 E4.24583
G1 X64.315 Y120.74 E4.25907
G1 X63.776 Y120.227 E4.2723
G1 X63.294 Y119.66 E4.28553
G1 X62.877 Y119.044 E4.29875
G1 X62.527 Y118.386 E4.312
G1 X62.251 Y117.695 E4.32522
G1 X62.05 Y116.979 E4.33844
G1 X61.927 Y116.245 E4.35167
G1 X61.883 Y115.468 E4.36551
G1 X61.883 Y113.665 E4.39756
G1 X61.923 Y112.922 E4.41078
G1 X62.042 Y112.187 E4.42402
G1 X62.24 Y111.469 E4.43726
G1 X62.513 Y110.777 E4.45048
G1 X62.859 Y110.118 E4.46371
G1 X63.274 Y109.5 E4.47695
G1 X63.753 Y108.93 E4.49018
G1 X64.29 Y108.415 E4.50341
G1 X64.48 Y108.186 E4.5087
G1 X64.969 Y107.626 E4.52191
G1 X65.516 Y107.121 E4.53515
G1 X66.114 Y106.678 E4.54837
G1 X66.757 Y106.302 E4.56161
M204 S625
M205 X6 Y6
G0 F4285.7 X67.048 Y106.625
M204 S500
M205 X5 Y5
G1 F1200 X67.712 Y106.341 E4.57445
G1 X68.53 Y106.103 E4.5896
G1 X70.838 Y105.593 E4.63161
G1 X71.55 Y105.477 E4.64444
G1 X72.271 Y105.44 E4.65727
G1 X72.991 Y105.483 E4.67009
G1 X73.702 Y105.606 E4.68292
G1 X74.395 Y105.806 E4.69574
G1 X75.049 Y106.077 E4.70832
G1 X75.193 Y105.918 E4.71214
G1 X75.732 Y105.438 E4.72497
G1 X76.321 Y105.022 E4.73778
G1 X76.953 Y104.673 E4.75062
G1 X77.619 Y104.396 E4.76344
G1 X78.371 Y104.181 E4.77734
G1 X81.457 Y103.497 E4.83353
G1 X81.422 Y102.807 E4.84581
G1 X81.465 Y102.087 E4.85863
G1 X81.587 Y101.376 E4.87146
G1 X81.787 Y100.683 E4.88428
G1 X82.063 Y100.017 E4.89709
G1 X82.431 Y99.352 E4.9106
G1 X82.524 Y99.205 E4.9137
G1 X82.942 Y98.618 E4.92651
G1 X83.424 Y98.081 E4.93933
G1 X83.961 Y97.6 E4.95215
G1 X84.549 Y97.182 E4.96497
G1 X85.18 Y96.831 E4.97781
G1 X85.845 Y96.552 E4.99063
G1 X86.617 Y96.33 E5.00491
G1 X87.84 Y96.059 E5.02717
G1 X88.552 Y95.942 E5.04
G1 X89.272 Y95.905 E5.05281
G1 X89.992 Y95.948 E5.06564
G1 X90.703 Y96.07 E5.07846
G1 X91.396 Y96.27 E5.09128
G1 X92.063 Y96.545 E5.10411
G1 X92.729 Y96.914 E5.11764
G1 X92.876 Y97.007 E5.12073
G1 X93.463 Y97.425 E5.13354
G1 X94 Y97.907 E5.14637
G1 X94.481 Y98.444 E5.15918
G1 X94.899 Y99.032 E5.17201
G1 X95.25 Y99.663 E5.18484
G1 X95.529 Y100.328 E5.19766
G1 X95.542 Y100.374 E5.19851
G1 X97.775 Y99.879 E5.23917
G1 X100.718 Y99.282 E5.29255
G1 X100.947 Y99.24 E5.29669
G1 X103.783 Y98.77 E5.34779
G1 X104.016 Y98.735 E5.35198
G1 X106.866 Y98.368 E5.40306
G1 X107.099 Y98.342 E5.40722
G1 X109.681 Y98.104 E5.45332
G1 X109.825 Y97.904 E5.4577
G1 X110.451 Y97.233 E5.47401
G1 X110.838 Y96.873 E5.48341
G1 X111.257 Y96.515 E5.4932
G1 X111.847 Y96.1 E5.50602
G1 X112.247 Y95.87 E5.51423
G1 X112.714 Y95.623 E5.52362
G1 X113.34 Y95.334 E5.53587
G1 X113.365 Y95.324 E5.53635
G1 X114.346 Y95.019 E5.55461
G1 X114.863 Y94.902 E5.56404
G1 X115.819 Y94.759 E5.58122
G1 X115.846 Y94.757 E5.5817
G1 X116.6 Y94.745 E5.59511
G1 X117.125 Y94.767 E5.60445
G1 X118.089 Y94.88 E5.6217
G1 X118.12 Y94.886 E5.62226
G1 X118.848 Y95.071 E5.63561
G1 X119.347 Y95.229 E5.64492
G1 X120.293 Y95.612 E5.66306
G1 X120.319 Y95.625 E5.66358
G1 X120.93 Y95.973 E5.67608
G1 X121.373 Y96.258 E5.68544
G1 X122.044 Y96.753 E5.70026
G1 X122.063 Y96.769 E5.7007
G1 X122.72 Y97.406 E5.71697
G1 X123.071 Y97.798 E5.72632
G1 X123.311 Y98.102 E5.73321
G1 X125.883 Y98.339 E5.77912
G1 X126.121 Y98.366 E5.78338
G1 X128.991 Y98.737 E5.83482
G1 X129.22 Y98.771 E5.83894
G1 X132.056 Y99.241 E5.89004
G1 X132.286 Y99.283 E5.89419
G1 X135.227 Y99.88 E5.94754
G1 X137.456 Y100.374 E5.98812
G1 X137.714 Y99.736 E6.00036
G1 X138.057 Y99.101 E6.01318
G1 X138.468 Y98.508 E6.02601
G1 X138.942 Y97.965 E6.03882
G1 X139.473 Y97.477 E6.05164
G1 X140.107 Y97.017 E6.06557
G1 X140.253 Y96.924 E6.06864
G1 X140.881 Y96.571 E6.08145
G1 X141.546 Y96.29 E6.09428
G1 X142.237 Y96.083 E6.1071
G1 X142.947 Y95.955 E6.11993
G1 X143.666 Y95.906 E6.13274
G1 X144.387 Y95.936 E6.14557
G1 X145.15 Y96.057 E6.1593
G1 X146.376 Y96.327 E6.18162
G1 X147.071 Y96.521 E6.19444
G1 X147.74 Y96.791 E6.20727
G1 X148.375 Y97.133 E6.22009
G1 X148.969 Y97.543 E6.23292
G1 X149.513 Y98.016 E6.24573
G1 X150.002 Y98.547 E6.25856
G1 X150.494 Y99.231 E6.27354
G1 X150.586 Y99.378 E6.27662
G1 X150.935 Y100.01 E6.28946
G1 X151.211 Y100.677 E6.30229
G1 X151.412 Y101.369 E6.3151
G1 X151.534 Y102.08 E6.32792
G1 X151.578 Y102.8 E6.34074
G1 X151.542 Y103.497 E6.35315
G1 X154.63 Y104.182 E6.40938
G1 X155.325 Y104.377 E6.42221
G1 X155.994 Y104.648 E6.43504
G1 X156.628 Y104.991 E6.44785
G1 X157.221 Y105.402 E6.46068
G1 X157.765 Y105.876 E6.4735
G1 X157.956 Y106.084 E6.47852
G1 X158.303 Y105.919 E6.48535
G1 X158.985 Y105.684 E6.49818
G1 X159.689 Y105.526 E6.511
G1 X160.406 Y105.446 E6.52383
G1 X161.127 Y105.446 E6.53664
G1 X162.177 Y105.591 E6.55548
G1 X164.473 Y106.101 E6.59729
G1 X165.167 Y106.296 E6.61011
G1 X165.836 Y106.567 E6.62294
G1 X166.47 Y106.91 E6.63575
G1 X167.063 Y107.321 E6.64858
G1 X167.606 Y107.796 E6.6614
G1 X168.094 Y108.327 E6.67422
G1 X168.561 Y108.973 E6.68839
G1 X168.706 Y109.202 E6.69321
G1 X169.058 Y109.832 E6.70604
G1 X169.337 Y110.497 E6.71886
G1 X169.542 Y111.189 E6.73169
G1 X169.668 Y111.899 E6.7445
G1 X169.716 Y112.619 E6.75733
G1 X169.683 Y113.34 E6.77016
G1 X169.563 Y114.089 E6.78365
G1 X169.145 Y115.981 E6.81809
G1 X168.95 Y116.676 E6.83092
G1 X168.68 Y117.345 E6.84374
G1 X168.338 Y117.98 E6.85656
G1 X167.927 Y118.573 E6.86939
G1 X167.391 Y119.18 E6.88378
G1 X167.207 Y119.364 E6.88841
G1 X166.67 Y119.845 E6.90123
G1 X166.082 Y120.264 E6.91406
G1 X165.452 Y120.615 E6.92688
G1 X164.787 Y120.894 E6.9397
G1 X164.095 Y121.098 E6.95252
G1 X163.385 Y121.224 E6.96534
G1 X162.665 Y121.271 E6.97817
G1 X161.944 Y121.237 E6.991
G1 X161.2 Y121.118 E7.00439
G1 X158.855 Y120.6 E7.04708
G1 X158.16 Y120.405 E7.05991
G1 X157.491 Y120.135 E7.07274
G1 X156.856 Y119.793 E7.08556
G1 X156.263 Y119.382 E7.09838
G1 X155.719 Y118.909 E7.1112
G1 X155.322 Y118.477 E7.12163
G1 X154.994 Y118.615 E7.12795
G1 X154.303 Y118.822 E7.14077
G1 X153.593 Y118.95 E7.1536
G1 X152.874 Y118.999 E7.16641
G1 X152.153 Y118.969 E7.17924
G1 X151.381 Y118.846 E7.19313
G1 X131.972 Y114.545 E7.54652
G1 X129.422 Y114.028 E7.59277
G1 X126.868 Y113.606 E7.63878
G1 X124.247 Y113.271 E7.68575
G1 X121.683 Y113.039 E7.73152
G1 X119.106 Y112.898 E7.77739
G1 X116.484 Y112.85 E7.82401
G1 X113.88 Y112.899 E7.87031
G1 X111.284 Y113.042 E7.91652
G1 X108.693 Y113.277 E7.96277
G1 X106.121 Y113.607 E8.00886
G1 X103.568 Y114.03 E8.05487
G1 X100.989 Y114.553 E8.10164
G1 X81.622 Y118.846 E8.45427
G1 X80.91 Y118.963 E8.46709
G1 X80.19 Y119 E8.47991
G1 X79.469 Y118.957 E8.49275
G1 X78.758 Y118.835 E8.50557
G1 X78.288 Y118.7 E8.51426
G1 X78.085 Y118.989 E8.52054
G1 X77.609 Y119.53 E8.53335
G1 X77.075 Y120.016 E8.54619
G1 X76.492 Y120.44 E8.559
G1 X76.062 Y120.684 E8.56779
G1 X75.646 Y121.202 E8.5796
G1 X75.135 Y121.712 E8.59243
G1 X74.571 Y122.161 E8.60525
G1 X73.96 Y122.546 E8.61808
G1 X73.311 Y122.86 E8.6309
G1 X72.631 Y123.101 E8.64372
G1 X71.928 Y123.265 E8.65656
G1 X71.212 Y123.35 E8.66937
G1 X70.491 Y123.356 E8.68219
G1 X69.773 Y123.281 E8.69502
G1 X69.068 Y123.128 E8.70785
G1 X68.385 Y122.898 E8.72066
G1 X67.731 Y122.593 E8.73349
G1 X67.054 Y122.176 E8.74762
G1 X65.797 Y121.291 E8.77495
G1 X65.143 Y120.845 E8.78902
G1 X64.571 Y120.406 E8.80184
G1 X64.051 Y119.906 E8.81466
G1 X63.589 Y119.352 E8.82748
G1 X63.191 Y118.75 E8.84031
G1 X62.862 Y118.108 E8.85313
G1 X62.607 Y117.434 E8.86594
G1 X62.427 Y116.735 E8.87877
G1 X62.326 Y116.021 E8.89159
G1 X62.303 Y115.468 E8.90143
G1 X62.303 Y113.665 E8.93348
G1 X62.343 Y112.945 E8.9463
G1 X62.462 Y112.233 E8.95913
G1 X62.66 Y111.539 E8.97196
G1 X62.933 Y110.872 E8.98477
G1 X63.278 Y110.238 E8.9976
G1 X63.691 Y109.647 E9.01042
G1 X64.167 Y109.105 E9.02324
G1 X64.671 Y108.645 E9.03537
G1 X64.824 Y108.428 E9.04009
G1 X65.301 Y107.887 E9.05291
G1 X65.836 Y107.403 E9.06574
G1 X66.421 Y106.98 E9.07857
G1 X67.048 Y106.625 E9.09138
M204 S625
M205 X6 Y6
G0 F4285.7 X67.338 Y106.952
M204 S500
M205 X5 Y5
G1 F1200 X67.985 Y106.691 E9.10378
G1 X68.621 Y106.513 E9.11552
G1 X70.929 Y106.003 E9.15753
G1 X71.618 Y105.892 E9.16994
G1 X72.315 Y105.86 E9.18234
G1 X73.011 Y105.909 E9.19475
G1 X73.697 Y106.036 E9.20715
G1 X74.364 Y106.241 E9.21955
G1 X75.003 Y106.521 E9.23195
G1 X75.14 Y106.601 E9.23477
G1 X75.521 Y106.183 E9.24483
G1 X76.047 Y105.725 E9.25722
G1 X76.622 Y105.33 E9.26963
G1 X77.239 Y105.003 E9.28204
G1 X77.888 Y104.748 E9.29443
G1 X78.462 Y104.591 E9.30501
G1 X81.933 Y103.822 E9.36821
G1 X81.874 Y103.46 E9.37473
G1 X81.842 Y102.763 E9.38713
G1 X81.89 Y102.067 E9.39953
G1 X82.018 Y101.381 E9.41194
G1 X82.222 Y100.714 E9.42434
G1 X82.502 Y100.075 E9.43674
G1 X82.785 Y99.577 E9.44692
G1 X82.878 Y99.43 E9.45001
G1 X83.285 Y98.863 E9.46242
G1 X83.753 Y98.346 E9.47481
G1 X84.278 Y97.886 E9.48722
G1 X84.851 Y97.488 E9.49962
G1 X85.467 Y97.159 E9.51204
G1 X86.115 Y96.903 E9.52442
G1 X86.707 Y96.74 E9.53534
G1 X87.93 Y96.469 E9.55761
G1 X88.619 Y96.358 E9.57001
G1 X89.316 Y96.325 E9.58241
G1 X90.012 Y96.373 E9.59482
G1 X90.698 Y96.5 E9.60722
G1 X91.365 Y96.705 E9.61962
